: (PGM, NAME="1002")
; MACHINE
;   VENDOR AUTODESK
;   DESCRIPTION GENERIC 3-AXIS
; T4  D=0.375 CR=0 - ZMIN=-0.53 - FLAT END MILL
: G90 G40 G94
G17
G70
M26
; 2D POCKET1
M9
M26
:T4 M6
M26
S10000 M3
H0
G0 X1.5296 Y1.5587
Z0.6
Z0.2
G1 Z0.1 F90
Z-0.0019 F30
X1.5295 Y1.5574 Z-0.0116
X1.5296 Y1.5537 Z-0.0206
X1.5299 Y1.5507 Z-0.0245
X1.5304 Y1.5478 Z-0.0284
X1.5314 Y1.5441 Z-0.0314
X1.5329 Y1.5405 Z-0.0343
X1.535 Y1.5365 Z-0.0362
X1.5376 Y1.5328 Z-0.0381
X1.5408 Y1.5292 Z-0.0387
X1.5445 Y1.526 Z-0.0394
G17 G3 X1.6555 Y1.674 I1.6 J1.6 F90
X1.5445 Y1.526 I1.6 J1.6
X1.6555 Y1.674 Z-0.0495 I1.6 J1.6 K0.0203
X1.5445 Y1.526 Z-0.0597 I1.6 J1.6 K0.0203
X1.6555 Y1.674 Z-0.0698 I1.6 J1.6 K0.0203
X1.5211 Y1.5517 Z-0.0787 I1.6 J1.6 K0.0203
X1.6789 Y1.6483 I1.6 J1.6
X1.5211 Y1.5517 I1.6 J1.6
X1.6789 Y1.6483 Z-0.0889 I1.6 J1.6 K0.0203
X1.5211 Y1.5517 Z-0.099 I1.6 J1.6 K0.0203
X1.6789 Y1.6483 Z-0.1092 I1.6 J1.6 K0.0203
X1.5088 Y1.5843 Z-0.1181 I1.6 J1.6 K0.0203
X1.6912 Y1.6157 I1.6 J1.6
X1.5088 Y1.5843 I1.6 J1.6
X1.6912 Y1.6157 Z-0.1283 I1.6 J1.6 K0.0203
X1.5088 Y1.5843 Z-0.1384 I1.6 J1.6 K0.0203
X1.6912 Y1.6157 Z-0.1486 I1.6 J1.6 K0.0203
X1.5095 Y1.619 Z-0.1575 I1.6 J1.6 K0.0203
X1.6905 Y1.581 I1.6 J1.6
X1.5095 Y1.619 I1.6 J1.6
X1.6905 Y1.581 Z-0.1676 I1.6 J1.6 K0.0203
X1.5095 Y1.619 Z-0.1778 I1.6 J1.6 K0.0203
X1.6905 Y1.581 Z-0.1879 I1.6 J1.6 K0.0203
X1.5229 Y1.6511 Z-0.1969 I1.6 J1.6 K0.0203
X1.6771 Y1.5489 I1.6 J1.6
X1.5229 Y1.6511 I1.6 J1.6
X1.6771 Y1.5489 Z-0.207 I1.6 J1.6 K0.0203
X1.5229 Y1.6511 Z-0.2171 I1.6 J1.6 K0.0203
X1.6771 Y1.5489 Z-0.2273 I1.6 J1.6 K0.0203
X1.5472 Y1.676 Z-0.2362 I1.6 J1.6 K0.0203
X1.6528 Y1.524 I1.6 J1.6
X1.5472 Y1.676 I1.6 J1.6
X1.6528 Y1.524 Z-0.2464 I1.6 J1.6 K0.0203
X1.5472 Y1.676 Z-0.2565 I1.6 J1.6 K0.0203
X1.6528 Y1.524 Z-0.2667 I1.6 J1.6 K0.0203
X1.579 Y1.6901 Z-0.2756 I1.6 J1.6 K0.0203
X1.621 Y1.5099 I1.6 J1.6
X1.579 Y1.6901 I1.6 J1.6
X1.621 Y1.5099 Z-0.2857 I1.6 J1.6 K0.0203
X1.579 Y1.6901 Z-0.2959 I1.6 J1.6 K0.0203
X1.621 Y1.5099 Z-0.306 I1.6 J1.6 K0.0203
X1.6137 Y1.6915 Z-0.315 I1.6 J1.6 K0.0203
X1.5863 Y1.5085 I1.6 J1.6
X1.6137 Y1.6915 I1.6 J1.6
X1.5863 Y1.5085 Z-0.3251 I1.6 J1.6 K0.0203
X1.6137 Y1.6915 Z-0.3353 I1.6 J1.6 K0.0203
X1.5863 Y1.5085 Z-0.3454 I1.6 J1.6 K0.0203
X1.6465 Y1.6799 Z-0.3543 I1.6 J1.6 K0.0203
X1.5535 Y1.5201 I1.6 J1.6
X1.6465 Y1.6799 I1.6 J1.6
X1.5535 Y1.5201 Z-0.3645 I1.6 J1.6 K0.0203
X1.6465 Y1.6799 Z-0.3746 I1.6 J1.6 K0.0203
X1.5535 Y1.5201 Z-0.3848 I1.6 J1.6 K0.0203
X1.6728 Y1.6571 Z-0.3937 I1.6 J1.6 K0.0203
X1.5272 Y1.5429 I1.6 J1.6
X1.6728 Y1.6571 I1.6 J1.6
X1.5272 Y1.5429 Z-0.4038 I1.6 J1.6 K0.0203
X1.6728 Y1.6571 Z-0.414 I1.6 J1.6 K0.0203
X1.5272 Y1.5429 Z-0.4241 I1.6 J1.6 K0.0203
X1.6887 Y1.6262 Z-0.4331 I1.6 J1.6 K0.0203
X1.5113 Y1.5738 I1.6 J1.6
X1.6887 Y1.6262 I1.6 J1.6
X1.5113 Y1.5738 Z-0.4432 I1.6 J1.6 K0.0203
X1.6887 Y1.6262 Z-0.4534 I1.6 J1.6 K0.0203
X1.5113 Y1.5738 Z-0.4635 I1.6 J1.6 K0.0203
X1.6921 Y1.5916 Z-0.4724 I1.6 J1.6 K0.0203
X1.5079 Y1.6084 I1.6 J1.6
X1.6921 Y1.5916 I1.6 J1.6
X1.5079 Y1.6084 Z-0.4826 I1.6 J1.6 K0.0203
X1.6921 Y1.5916 Z-0.4927 I1.6 J1.6 K0.0203
X1.5079 Y1.6084 Z-0.5029 I1.6 J1.6 K0.0203
X1.6825 Y1.5582 Z-0.5118 I1.6 J1.6 K0.0203
X1.5175 Y1.6418 I1.6 J1.6
X1.6825 Y1.5582 I1.6 J1.6
X1.5175 Y1.6418 Z-0.522 I1.6 J1.6 K0.0203
X1.6402 Y1.5167 Z-0.53 I1.6 J1.6 K0.0203
X1.5598 Y1.6833 I1.6 J1.6
X1.6402 Y1.5167 I1.6 J1.6
G1 X1.6444 Y1.5191 Z-0.5294
X1.6483 Y1.522 Z-0.5287
X1.6516 Y1.5251 Z-0.5268
X1.6544 Y1.5287 Z-0.525
X1.6565 Y1.5319 Z-0.522
X1.6582 Y1.5354 Z-0.519
X1.6593 Y1.5382 Z-0.5151
X1.6602 Y1.541 Z-0.5113
X1.661 Y1.5447 Z-0.5022
X1.6611 Y1.5459 Z-0.4925
G0 Z0.6
M26
G0 X0 Y0
M30
M2
