%
; 1001
; Machine
;   vendor: Autodesk
;   description: Generic 3-axis
; T2  D=0.125 CR=0 TAPER=118deg - ZMIN=-0.1 - center drill
; T3  D=0.1695 CR=0 TAPER=118deg - ZMIN=-0.6 - drill
; T4  D=0.375 CR=0 - ZMIN=-0.55 - flat end mill
N0 G90
N1 G17
N2 G70
N3 G53 G0 Z0
; Drill2
N4 M6 T2
N5 S9170 M3
N6 G54
N8 G0 X1.1312 Y2.4119
N9 Z0.6
N11 Z0.2
N12 G98 G81 X1.1312 Y2.4119 Z-0.1 R0.2 F28.7
N13 X2.0687
N14 X2.5375 Y1.6
N15 X2.0687 Y0.7881
N16 X1.1312
N17 X0.6625 Y1.6
N18 G80
N19 Z0.6
N21 M5
N22 G53 G0 Z0
; Drill3
N23 M1
N24 M6 T3
N25 S6760 M3
N26 G54
N28 G0 X1.1312 Y2.4119
N29 Z0.6
N31 Z0.2
N32 Z0.08
N33 G1 Z-0.0424 F29
N34 G0 Z-0.0384
N35 G1 Z-0.0848 F29
N36 G0 Z-0.0808
N37 G1 Z-0.1271 F29
N38 G0 Z-0.1231
N39 G1 Z-0.1695 F29
N40 G0 Z-0.1655
N41 G1 Z-0.2119 F29
N42 G0 Z-0.2079
N43 G1 Z-0.2543 F29
N44 G0 Z-0.2503
N45 G1 Z-0.2966 F29
N46 G0 Z-0.2926
N47 G1 Z-0.339 F29
N48 G0 Z-0.335
N49 G1 Z-0.3814 F29
N50 G0 Z-0.3774
N51 G1 Z-0.4238 F29
N52 G0 Z-0.4198
N53 G1 Z-0.4661 F29
N54 G0 Z0.2
N55 Z-0.3861
N56 G1 Z-0.5085 F29
N57 G0 Z-0.5045
N58 G1 Z-0.5509 F29
N59 G0 Z-0.5469
N60 G1 Z-0.5933 F29
N61 G0 Z-0.5893
N62 G1 Z-0.6 F29
N63 G0 Z0.2
N64 X2.0687
N65 Z0.08
N66 G1 Z-0.0424 F29
N67 G0 Z-0.0384
N68 G1 Z-0.0848 F29
N69 G0 Z-0.0808
N70 G1 Z-0.1271 F29
N71 G0 Z-0.1231
N72 G1 Z-0.1695 F29
N73 G0 Z-0.1655
N74 G1 Z-0.2119 F29
N75 G0 Z-0.2079
N76 G1 Z-0.2543 F29
N77 G0 Z-0.2503
N78 G1 Z-0.2966 F29
N79 G0 Z-0.2926
N80 G1 Z-0.339 F29
N81 G0 Z-0.335
N82 G1 Z-0.3814 F29
N83 G0 Z-0.3774
N84 G1 Z-0.4238 F29
N85 G0 Z-0.4198
N86 G1 Z-0.4661 F29
N87 G0 Z0.2
N88 Z-0.3861
N89 G1 Z-0.5085 F29
N90 G0 Z-0.5045
N91 G1 Z-0.5509 F29
N92 G0 Z-0.5469
N93 G1 Z-0.5933 F29
N94 G0 Z-0.5893
N95 G1 Z-0.6 F29
N96 G0 Z0.2
N97 X2.5375 Y1.6
N98 Z0.08
N99 G1 Z-0.0424 F29
N100 G0 Z-0.0384
N101 G1 Z-0.0848 F29
N102 G0 Z-0.0808
N103 G1 Z-0.1271 F29
N104 G0 Z-0.1231
N105 G1 Z-0.1695 F29
N106 G0 Z-0.1655
N107 G1 Z-0.2119 F29
N108 G0 Z-0.2079
N109 G1 Z-0.2543 F29
N110 G0 Z-0.2503
N111 G1 Z-0.2966 F29
N112 G0 Z-0.2926
N113 G1 Z-0.339 F29
N114 G0 Z-0.335
N115 G1 Z-0.3814 F29
N116 G0 Z-0.3774
N117 G1 Z-0.4238 F29
N118 G0 Z-0.4198
N119 G1 Z-0.4661 F29
N120 G0 Z0.2
N121 Z-0.3861
N122 G1 Z-0.5085 F29
N123 G0 Z-0.5045
N124 G1 Z-0.5509 F29
N125 G0 Z-0.5469
N126 G1 Z-0.5933 F29
N127 G0 Z-0.5893
N128 G1 Z-0.6 F29
N129 G0 Z0.2
N130 X2.0687 Y0.7881
N131 Z0.08
N132 G1 Z-0.0424 F29
N133 G0 Z-0.0384
N134 G1 Z-0.0848 F29
N135 G0 Z-0.0808
N136 G1 Z-0.1271 F29
N137 G0 Z-0.1231
N138 G1 Z-0.1695 F29
N139 G0 Z-0.1655
N140 G1 Z-0.2119 F29
N141 G0 Z-0.2079
N142 G1 Z-0.2543 F29
N143 G0 Z-0.2503
N144 G1 Z-0.2966 F29
N145 G0 Z-0.2926
N146 G1 Z-0.339 F29
N147 G0 Z-0.335
N148 G1 Z-0.3814 F29
N149 G0 Z-0.3774
N150 G1 Z-0.4238 F29
N151 G0 Z-0.4198
N152 G1 Z-0.4661 F29
N153 G0 Z0.2
N154 Z-0.3861
N155 G1 Z-0.5085 F29
N156 G0 Z-0.5045
N157 G1 Z-0.5509 F29
N158 G0 Z-0.5469
N159 G1 Z-0.5933 F29
N160 G0 Z-0.5893
N161 G1 Z-0.6 F29
N162 G0 Z0.2
N163 X1.1312
N164 Z0.08
N165 G1 Z-0.0424 F29
N166 G0 Z-0.0384
N167 G1 Z-0.0848 F29
N168 G0 Z-0.0808
N169 G1 Z-0.1271 F29
N170 G0 Z-0.1231
N171 G1 Z-0.1695 F29
N172 G0 Z-0.1655
N173 G1 Z-0.2119 F29
N174 G0 Z-0.2079
N175 G1 Z-0.2543 F29
N176 G0 Z-0.2503
N177 G1 Z-0.2966 F29
N178 G0 Z-0.2926
N179 G1 Z-0.339 F29
N180 G0 Z-0.335
N181 G1 Z-0.3814 F29
N182 G0 Z-0.3774
N183 G1 Z-0.4238 F29
N184 G0 Z-0.4198
N185 G1 Z-0.4661 F29
N186 G0 Z0.2
N187 Z-0.3861
N188 G1 Z-0.5085 F29
N189 G0 Z-0.5045
N190 G1 Z-0.5509 F29
N191 G0 Z-0.5469
N192 G1 Z-0.5933 F29
N193 G0 Z-0.5893
N194 G1 Z-0.6 F29
N195 G0 Z0.2
N196 X0.6625 Y1.6
N197 Z0.08
N198 G1 Z-0.0424 F29
N199 G0 Z-0.0384
N200 G1 Z-0.0848 F29
N201 G0 Z-0.0808
N202 G1 Z-0.1271 F29
N203 G0 Z-0.1231
N204 G1 Z-0.1695 F29
N205 G0 Z-0.1655
N206 G1 Z-0.2119 F29
N207 G0 Z-0.2079
N208 G1 Z-0.2543 F29
N209 G0 Z-0.2503
N210 G1 Z-0.2966 F29
N211 G0 Z-0.2926
N212 G1 Z-0.339 F29
N213 G0 Z-0.335
N214 G1 Z-0.3814 F29
N215 G0 Z-0.3774
N216 G1 Z-0.4238 F29
N217 G0 Z-0.4198
N218 G1 Z-0.4661 F29
N219 G0 Z0.2
N220 Z-0.3861
N221 G1 Z-0.5085 F29
N222 G0 Z-0.5045
N223 G1 Z-0.5509 F29
N224 G0 Z-0.5469
N225 G1 Z-0.5933 F29
N226 G0 Z-0.5893
N227 G1 Z-0.6 F29
N228 G0 Z0.2
N229 Z0.6
N231 M5
N232 G53 G0 Z0
; 2D Contour1
N233 M1
N234 M6 T4
N235 S10000 M3
N236 G54
N238 G0 X1.6375 Y-0.2375
N239 Z0.6
N240 Z0.2
N241 G1 Z0.0787 F30
N242 Z-0.0019
N243 G19 G3 Y-0.2 Z-0.0394 J0.0375
N244 G1 Y-0.1625 F90
N245 G17 G3 X1.6 Y-0.125 I-0.0375
N246 G2 Y3.325 J1.725
N247 Y-0.125 J-1.725
N248 G3 X1.5625 Y-0.1625 J-0.0375
N249 G1 Y-0.2
N250 G19 G2 Y-0.2375 Z-0.0019 K0.0375
N251 G0 Z0.2
N252 X1.6375
N253 G1 Z0.0394 F30
N254 Z-0.0412
N255 G3 Y-0.2 Z-0.0787 J0.0375
N256 G1 Y-0.1625 F90
N257 G17 G3 X1.6 Y-0.125 I-0.0375
N258 G2 Y3.325 J1.725
N259 Y-0.125 J-1.725
N260 G3 X1.5625 Y-0.1625 J-0.0375
N261 G1 Y-0.2
N262 G19 G2 Y-0.2375 Z-0.0412 K0.0375
N263 G0 Z0.2
N264 X1.6375
N265 G1 Z0 F30
N266 Z-0.0806
N267 G3 Y-0.2 Z-0.1181 J0.0375
N268 G1 Y-0.1625 F90
N269 G17 G3 X1.6 Y-0.125 I-0.0375
N270 G2 Y3.325 J1.725
N271 Y-0.125 J-1.725
N272 G3 X1.5625 Y-0.1625 J-0.0375
N273 G1 Y-0.2
N274 G19 G2 Y-0.2375 Z-0.0806 K0.0375
N275 G0 Z0.2
N276 X1.6375
N277 G1 Z-0.0394 F30
N278 Z-0.12
N279 G3 Y-0.2 Z-0.1575 J0.0375
N280 G1 Y-0.1625 F90
N281 G17 G3 X1.6 Y-0.125 I-0.0375
N282 G2 Y3.325 J1.725
N283 Y-0.125 J-1.725
N284 G3 X1.5625 Y-0.1625 J-0.0375
N285 G1 Y-0.2
N286 G19 G2 Y-0.2375 Z-0.12 K0.0375
N287 G0 Z0.2
N288 X1.6375
N289 G1 Z-0.0787 F30
N290 Z-0.1594
N291 G3 Y-0.2 Z-0.1969 J0.0375
N292 G1 Y-0.1625 F90
N293 G17 G3 X1.6 Y-0.125 I-0.0375
N294 G2 Y3.325 J1.725
N295 Y-0.125 J-1.725
N296 G3 X1.5625 Y-0.1625 J-0.0375
N297 G1 Y-0.2
N298 G19 G2 Y-0.2375 Z-0.1594 K0.0375
N299 G0 Z0.2
N300 X1.6375
N301 G1 Z-0.1181 F30
N302 Z-0.1987
N303 G3 Y-0.2 Z-0.2362 J0.0375
N304 G1 Y-0.1625 F90
N305 G17 G3 X1.6 Y-0.125 I-0.0375
N306 G2 Y3.325 J1.725
N307 Y-0.125 J-1.725
N308 G3 X1.5625 Y-0.1625 J-0.0375
N309 G1 Y-0.2
N310 G19 G2 Y-0.2375 Z-0.1987 K0.0375
N311 G0 Z0.2
N312 X1.6375
N313 G1 Z-0.1575 F30
N314 Z-0.2381
N315 G3 Y-0.2 Z-0.2756 J0.0375
N316 G1 Y-0.1625 F90
N317 G17 G3 X1.6 Y-0.125 I-0.0375
N318 G2 Y3.325 J1.725
N319 Y-0.125 J-1.725
N320 G3 X1.5625 Y-0.1625 J-0.0375
N321 G1 Y-0.2
N322 G19 G2 Y-0.2375 Z-0.2381 K0.0375
N323 G0 Z0.2
N324 X1.6375
N325 G1 Z-0.1969 F30
N326 Z-0.2775
N327 G3 Y-0.2 Z-0.315 J0.0375
N328 G1 Y-0.1625 F90
N329 G17 G3 X1.6 Y-0.125 I-0.0375
N330 G2 Y3.325 J1.725
N331 Y-0.125 J-1.725
N332 G3 X1.5625 Y-0.1625 J-0.0375
N333 G1 Y-0.2
N334 G19 G2 Y-0.2375 Z-0.2775 K0.0375
N335 G0 Z0.2
N336 X1.6375
N337 G1 Z-0.2362 F30
N338 Z-0.3168
N339 G3 Y-0.2 Z-0.3543 J0.0375
N340 G1 Y-0.1625 F90
N341 G17 G3 X1.6 Y-0.125 I-0.0375
N342 G2 Y3.325 J1.725
N343 Y-0.125 J-1.725
N344 G3 X1.5625 Y-0.1625 J-0.0375
N345 G1 Y-0.2
N346 G19 G2 Y-0.2375 Z-0.3168 K0.0375
N347 G0 Z0.2
N348 X1.6375
N349 G1 Z-0.2756 F30
N350 Z-0.3562
N351 G3 Y-0.2 Z-0.3937 J0.0375
N352 G1 Y-0.1625 F90
N353 G17 G3 X1.6 Y-0.125 I-0.0375
N354 G2 Y3.325 J1.725
N355 Y-0.125 J-1.725
N356 G3 X1.5625 Y-0.1625 J-0.0375
N357 G1 Y-0.2
N358 G19 G2 Y-0.2375 Z-0.3562 K0.0375
N359 G0 Z0.2
N360 X1.6375
N361 G1 Z-0.315 F30
N362 Z-0.3956
N363 G3 Y-0.2 Z-0.4331 J0.0375
N364 G1 Y-0.1625 F90
N365 G17 G3 X1.6 Y-0.125 I-0.0375
N366 G2 Y3.325 J1.725
N367 Y-0.125 J-1.725
N368 G3 X1.5625 Y-0.1625 J-0.0375
N369 G1 Y-0.2
N370 G19 G2 Y-0.2375 Z-0.3956 K0.0375
N371 G0 Z0.2
N372 X1.6375
N373 G1 Z-0.3543 F30
N374 Z-0.4349
N375 G3 Y-0.2 Z-0.4724 J0.0375
N376 G1 Y-0.1625 F90
N377 G17 G3 X1.6 Y-0.125 I-0.0375
N378 G2 Y3.325 J1.725
N379 Y-0.125 J-1.725
N380 G3 X1.5625 Y-0.1625 J-0.0375
N381 G1 Y-0.2
N382 G19 G2 Y-0.2375 Z-0.4349 K0.0375
N383 G0 Z0.2
N384 X1.6375
N385 G1 Z-0.3937 F30
N386 Z-0.4743
N387 G3 Y-0.2 Z-0.5118 J0.0375
N388 G1 Y-0.1625 F90
N389 G17 G3 X1.6 Y-0.125 I-0.0375
N390 G2 Y3.325 J1.725
N391 Y-0.125 J-1.725
N392 G3 X1.5625 Y-0.1625 J-0.0375
N393 G1 Y-0.2
N394 G19 G2 Y-0.2375 Z-0.4743 K0.0375
N395 G0 Z0.2
N396 X1.6375
N397 G1 Z-0.4331 F30
N398 Z-0.5125
N399 G3 Y-0.2 Z-0.55 J0.0375
N400 G1 Y-0.1625 F90
N401 G17 G3 X1.6 Y-0.125 I-0.0375
N402 G2 Y3.325 J1.725
N403 Y-0.125 J-1.725
N404 X1.5717 Y-0.106 J0.0306
N405 G3 X1.5438 Y-0.0866 I-0.029 J-0.0119
N406 G2 X1.6562 Y3.2866 I0.0562 J1.6866
N407 X1.5438 Y-0.0866 I-0.0562 J-1.6866
N408 G3 X1.505 Y-0.1228 I-0.0012 J-0.0375
N409 G1 X1.5038 Y-0.1603
N410 X1.5036 Y-0.1648 Z-0.5497
N411 X1.5035 Y-0.1692 Z-0.5489
N412 X1.5033 Y-0.1736 Z-0.5476
N413 X1.5032 Y-0.1777 Z-0.5457
N414 X1.5031 Y-0.1816 Z-0.5434
N415 X1.503 Y-0.1851 Z-0.5406
N416 X1.5028 Y-0.1883 Z-0.5374
N417 Y-0.1911 Z-0.5338
N418 X1.5027 Y-0.1935 Z-0.5299
N419 X1.5026 Y-0.1953 Z-0.5258
N420 Y-0.1967 Z-0.5215
N421 X1.5025 Y-0.1975 Z-0.517
N422 Y-0.1978 Z-0.5125
N423 G0 Z0.6
; 2D Pocket1
N425 X1.5296 Y1.5587
N426 Z0.6
N427 Z0.2
N428 G1 Z0.1 F90
N429 Z-0.0019 F30
N430 X1.5295 Y1.5574 Z-0.0116
N431 X1.5296 Y1.5537 Z-0.0206
N432 X1.5299 Y1.5507 Z-0.0245
N433 X1.5304 Y1.5478 Z-0.0284
N434 X1.5314 Y1.5441 Z-0.0314
N435 X1.5329 Y1.5405 Z-0.0343
N436 X1.535 Y1.5365 Z-0.0362
N437 X1.5376 Y1.5328 Z-0.0381
N438 X1.5408 Y1.5292 Z-0.0387
N439 X1.5445 Y1.526 Z-0.0394
N440 G3 X1.6555 Y1.674 I0.0555 J0.074 F90
N441 X1.5445 Y1.526 I-0.0555 J-0.074
N442 X1.6555 Y1.674 Z-0.0495 I0.0555 J0.074
N443 X1.5445 Y1.526 Z-0.0597 I-0.0555 J-0.074
N444 X1.6555 Y1.674 Z-0.0698 I0.0555 J0.074
N445 X1.5211 Y1.5517 Z-0.0787 I-0.0555 J-0.074
N446 X1.6789 Y1.6483 I0.0789 J0.0483
N447 X1.5211 Y1.5517 I-0.0789 J-0.0483
N448 X1.6789 Y1.6483 Z-0.0889 I0.0789 J0.0483
N449 X1.5211 Y1.5517 Z-0.099 I-0.0789 J-0.0483
N450 X1.6789 Y1.6483 Z-0.1092 I0.0789 J0.0483
N451 X1.5088 Y1.5843 Z-0.1181 I-0.0789 J-0.0483
N452 X1.6912 Y1.6157 I0.0912 J0.0157
N453 X1.5088 Y1.5843 I-0.0912 J-0.0157
N454 X1.6912 Y1.6157 Z-0.1283 I0.0912 J0.0157
N455 X1.5088 Y1.5843 Z-0.1384 I-0.0912 J-0.0157
N456 X1.6912 Y1.6157 Z-0.1486 I0.0912 J0.0157
N457 X1.5095 Y1.619 Z-0.1575 I-0.0912 J-0.0157
N458 X1.6905 Y1.581 I0.0905 J-0.019
N459 X1.5095 Y1.619 I-0.0905 J0.019
N460 X1.6905 Y1.581 Z-0.1676 I0.0905 J-0.019
N461 X1.5095 Y1.619 Z-0.1778 I-0.0905 J0.019
N462 X1.6905 Y1.581 Z-0.1879 I0.0905 J-0.019
N463 X1.5229 Y1.6511 Z-0.1969 I-0.0905 J0.019
N464 X1.6771 Y1.5489 I0.0771 J-0.0511
N465 X1.5229 Y1.6511 I-0.0771 J0.0511
N466 X1.6771 Y1.5489 Z-0.207 I0.0771 J-0.0511
N467 X1.5229 Y1.6511 Z-0.2171 I-0.0771 J0.0511
N468 X1.6771 Y1.5489 Z-0.2273 I0.0771 J-0.0511
N469 X1.5472 Y1.676 Z-0.2362 I-0.0771 J0.0511
N470 X1.6528 Y1.524 I0.0528 J-0.076
N471 X1.5472 Y1.676 I-0.0528 J0.076
N472 X1.6528 Y1.524 Z-0.2464 I0.0528 J-0.076
N473 X1.5472 Y1.676 Z-0.2565 I-0.0528 J0.076
N474 X1.6528 Y1.524 Z-0.2667 I0.0528 J-0.076
N475 X1.579 Y1.6901 Z-0.2756 I-0.0528 J0.076
N476 X1.621 Y1.5099 I0.021 J-0.0901
N477 X1.579 Y1.6901 I-0.021 J0.0901
N478 X1.621 Y1.5099 Z-0.2857 I0.021 J-0.0901
N479 X1.579 Y1.6901 Z-0.2959 I-0.021 J0.0901
N480 X1.621 Y1.5099 Z-0.306 I0.021 J-0.0901
N481 X1.6137 Y1.6915 Z-0.315 I-0.021 J0.0901
N482 X1.5863 Y1.5085 I-0.0137 J-0.0915
N483 X1.6137 Y1.6915 I0.0137 J0.0915
N484 X1.5863 Y1.5085 Z-0.3251 I-0.0137 J-0.0915
N485 X1.6137 Y1.6915 Z-0.3353 I0.0137 J0.0915
N486 X1.5863 Y1.5085 Z-0.3454 I-0.0137 J-0.0915
N487 X1.6465 Y1.6799 Z-0.3543 I0.0137 J0.0915
N488 X1.5535 Y1.5201 I-0.0465 J-0.0799
N489 X1.6465 Y1.6799 I0.0465 J0.0799
N490 X1.5535 Y1.5201 Z-0.3645 I-0.0465 J-0.0799
N491 X1.6465 Y1.6799 Z-0.3746 I0.0465 J0.0799
N492 X1.5535 Y1.5201 Z-0.3848 I-0.0465 J-0.0799
N493 X1.6728 Y1.6571 Z-0.3937 I0.0465 J0.0799
N494 X1.5272 Y1.5429 I-0.0728 J-0.0571
N495 X1.6728 Y1.6571 I0.0728 J0.0571
N496 X1.5272 Y1.5429 Z-0.4038 I-0.0728 J-0.0571
N497 X1.6728 Y1.6571 Z-0.414 I0.0728 J0.0571
N498 X1.5272 Y1.5429 Z-0.4241 I-0.0728 J-0.0571
N499 X1.6887 Y1.6262 Z-0.4331 I0.0728 J0.0571
N500 X1.5113 Y1.5738 I-0.0887 J-0.0262
N501 X1.6887 Y1.6262 I0.0887 J0.0262
N502 X1.5113 Y1.5738 Z-0.4432 I-0.0887 J-0.0262
N503 X1.6887 Y1.6262 Z-0.4534 I0.0887 J0.0262
N504 X1.5113 Y1.5738 Z-0.4635 I-0.0887 J-0.0262
N505 X1.6921 Y1.5916 Z-0.4724 I0.0887 J0.0262
N506 X1.5079 Y1.6084 I-0.0921 J0.0084
N507 X1.6921 Y1.5916 I0.0921 J-0.0084
N508 X1.5079 Y1.6084 Z-0.4826 I-0.0921 J0.0084
N509 X1.6921 Y1.5916 Z-0.4927 I0.0921 J-0.0084
N510 X1.5079 Y1.6084 Z-0.5029 I-0.0921 J0.0084
N511 X1.6825 Y1.5582 Z-0.5118 I0.0921 J-0.0084
N512 X1.5175 Y1.6418 I-0.0825 J0.0418
N513 X1.6825 Y1.5582 I0.0825 J-0.0418
N514 X1.5175 Y1.6418 Z-0.522 I-0.0825 J0.0418
N515 X1.6402 Y1.5167 Z-0.53 I0.0825 J-0.0418
N516 X1.5598 Y1.6833 I-0.0402 J0.0833
N517 X1.6402 Y1.5167 I0.0402 J-0.0833
N518 G1 X1.6444 Y1.5191 Z-0.5294
N519 X1.6483 Y1.522 Z-0.5287
N520 X1.6516 Y1.5251 Z-0.5268
N521 X1.6544 Y1.5287 Z-0.525
N522 X1.6565 Y1.5319 Z-0.522
N523 X1.6582 Y1.5354 Z-0.519
N524 X1.6593 Y1.5382 Z-0.5151
N525 X1.6602 Y1.541 Z-0.5113
N526 X1.661 Y1.5447 Z-0.5022
N527 X1.6611 Y1.5459 Z-0.4925
N528 G0 Z0.6
N530 G53 Z0
N531 G53 G0 X0 Y0
N532 M30
